static/images/cli-signals.svg

<svg enable-background="new 0 0 512 512" viewBox="0 0 512 512" xmlns="http://www.w3.org/2000/svg"><g fill="#fff"><path d="m314 222.334c0-30.889-24.274-56.21-54.747-57.904 30.473-1.693 54.747-27.014 54.747-57.903 0-31.981-26.019-58-58-58s-58 26.019-58 58c0 30.889 24.274 56.21 54.747 57.904-30.473 1.693-54.747 27.014-54.747 57.903 0 29.63 22.338 54.125 51.055 57.57-28.717 3.445-51.055 27.94-51.055 57.57 0 31.981 26.019 58 58 58s58-26.019 58-58c0-29.63-22.338-54.125-51.055-57.57 28.717-3.445 51.055-27.94 51.055-57.57zm-96-115.807c0-20.953 17.047-38 38-38s38 17.047 38 38-17.047 38-38 38-38-17.047-38-38zm76 230.946c0 20.953-17.047 38-38 38s-38-17.047-38-38 17.047-38 38-38 38 17.047 38 38zm-38-77.139c-20.953 0-38-17.047-38-38s17.047-38 38-38 38 17.047 38 38-17.047 38-38 38z"/><path d="m263.07 2.93c-1.86-1.86-4.44-2.93-7.07-2.93s-5.21 1.07-7.07 2.93-2.93 4.44-2.93 7.07 1.07 5.21 2.93 7.07 4.44 2.93 7.07 2.93 5.21-1.07 7.07-2.93 2.93-4.44 2.93-7.07-1.07-5.21-2.93-7.07z"/><path d="m419.07 280.141h-53.07v-5.665l69.786-69.785c6.785-6.786 8.797-16.898 5.125-25.764-3.672-8.865-12.245-14.593-21.841-14.593h-53.07v-5.665l69.785-69.786c6.786-6.785 8.797-16.897 5.125-25.763-3.672-8.865-12.245-14.594-21.841-14.594h-53.069v-18.526c0-16.542-13.458-30-30-30h-38.5c-5.523 0-10 4.477-10 10s4.477 10 10 10h38.5c5.514 0 10 4.486 10 10v384c0 5.514-4.486 10-10 10h-160c-5.514 0-10-4.486-10-10v-384c0-5.514 4.486-10 10-10h37.5c5.523 0 10-4.477 10-10s-4.477-10-10-10h-37.5c-16.542 0-30 13.458-30 30v18.527h-53.069c-9.596 0-18.169 5.729-21.841 14.594-3.672 8.866-1.661 18.978 5.125 25.763l69.785 69.785v5.665h-53.069c-9.596 0-18.169 5.729-21.841 14.593-3.672 8.866-1.661 18.978 5.125 25.764l69.785 69.786v5.665h-53.069c-9.596 0-18.169 5.729-21.841 14.593-3.672 8.866-1.661 18.978 5.125 25.764l69.785 69.785v23.716c0 16.542 13.458 30 30 30h42.127v58c0 5.523 4.477 10 10 10s10-4.477 10-10v-58h36v58c0 5.523 4.477 10 10 10s10-4.477 10-10v-58h41.873c16.542 0 30-13.458 30-30v-23.716l69.786-69.786c6.785-6.786 8.797-16.898 5.125-25.764-3.672-8.865-12.245-14.593-21.841-14.593zm-53.07-211.614h53.069c2.116 0 3.016 1.408 3.363 2.248.348.839.708 2.47-.79 3.967l-55.642 55.642zm0 115.807h53.069c2.117 0 3.016 1.408 3.363 2.247s.708 2.471-.79 3.967l-55.642 55.643zm-220 177.664-55.643-55.643c-1.497-1.497-1.137-3.128-.79-3.967s1.247-2.247 3.363-2.247h53.07zm0-115.807-55.643-55.643c-1.497-1.497-1.137-3.128-.79-3.967s1.247-2.247 3.363-2.247h53.07zm0-115.807-55.644-55.643c-1.497-1.497-1.137-3.128-.789-3.967s1.247-2.248 3.363-2.248h53.07zm275.642 175.971-55.642 55.644v-61.857h53.069v-.001c2.117 0 3.016 1.408 3.363 2.247s.708 2.471-.79 3.967z"/></g></svg>

<?xml version="1.0" encoding="iso-8859-1"?>
<!-- Generator: Adobe Illustrator 19.0.0, SVG Export Plug-In . SVG Version: 6.00 Build 0)  -->
<svg version="1.1" id="Capa_1" xmlns="http://www.w3.org/2000/svg" xmlns:xlink="http://www.w3.org/1999/xlink" x="0px" y="0px"
	 viewBox="0 0 512 512" style="enable-background:new 0 0 512 512;" xml:space="preserve">
<g>
	<g>
		<path fill="#ffffff" d="M314,222.334c0-30.889-24.274-56.21-54.747-57.904C289.726,162.737,314,137.416,314,106.527c0-31.981-26.019-58-58-58
			c-31.981,0-58,26.019-58,58c0,30.889,24.274,56.21,54.747,57.904C222.274,166.124,198,191.445,198,222.334
			c0,29.63,22.338,54.125,51.055,57.57c-28.717,3.445-51.055,27.94-51.055,57.57c0,31.981,26.019,58,58,58s58-26.019,58-58
			c0-29.63-22.338-54.125-51.055-57.57C291.662,276.459,314,251.964,314,222.334z M218,106.527c0-20.953,17.047-38,38-38
			s38,17.047,38,38s-17.047,38-38,38S218,127.48,218,106.527z M294,337.473c0,20.953-17.047,38-38,38s-38-17.047-38-38
			s17.047-38,38-38S294,316.52,294,337.473z M256,260.334c-20.953,0-38-17.047-38-38s17.047-38,38-38s38,17.047,38,38
			S276.953,260.334,256,260.334z"/>
	</g>
</g>
<g>
	<g>
		<path fill="#ffffff" d="M263.07,2.93C261.21,1.07,258.63,0,256,0c-2.63,0-5.21,1.07-7.07,2.93S246,7.37,246,10s1.07,5.21,2.93,7.07
			S253.37,20,256,20c2.63,0,5.21-1.07,7.07-2.93c1.86-1.86,2.93-4.44,2.93-7.07S264.93,4.79,263.07,2.93z"/>
	</g>
</g>
<g>
	<g>
		<path fill="#ffffff" d="M419.07,280.141H366v-5.665l69.786-69.785c6.785-6.786,8.797-16.898,5.125-25.764
			c-3.672-8.865-12.245-14.593-21.841-14.593H366v-5.665l69.785-69.786c6.786-6.785,8.797-16.897,5.125-25.763
			c-3.672-8.865-12.245-14.594-21.841-14.594H366V30c0-16.542-13.458-30-30-30h-38.5c-5.523,0-10,4.477-10,10s4.477,10,10,10H336
			c5.514,0,10,4.486,10,10v384c0,5.514-4.486,10-10,10H176c-5.514,0-10-4.486-10-10V30c0-5.514,4.486-10,10-10h37.5
			c5.523,0,10-4.477,10-10s-4.477-10-10-10H176c-16.542,0-30,13.458-30,30v18.527H92.931c-9.596,0-18.169,5.729-21.841,14.594
			c-3.672,8.866-1.661,18.978,5.125,25.763L146,158.669v5.665H92.931c-9.596,0-18.169,5.729-21.841,14.593
			c-3.672,8.866-1.661,18.978,5.125,25.764L146,274.477v5.665H92.931c-9.596,0-18.169,5.729-21.841,14.593
			c-3.672,8.866-1.661,18.978,5.125,25.764L146,390.284V414c0,16.542,13.458,30,30,30h42.127v58c0,5.523,4.477,10,10,10
			s10-4.477,10-10v-58h36v58c0,5.523,4.477,10,10,10s10-4.477,10-10v-58H336c16.542,0,30-13.458,30-30v-23.716l69.786-69.786
			c6.785-6.786,8.797-16.898,5.125-25.764C437.239,285.869,428.666,280.141,419.07,280.141z M366,68.527h53.069
			c2.116,0,3.016,1.408,3.363,2.248c0.348,0.839,0.708,2.47-0.79,3.967L366,130.384V68.527z M366,184.334h53.069
			c2.117,0,3.016,1.408,3.363,2.247c0.347,0.839,0.708,2.471-0.79,3.967L366,246.191V184.334z M146,361.998l-55.643-55.643
			c-1.497-1.497-1.137-3.128-0.79-3.967c0.347-0.839,1.247-2.247,3.363-2.247H146V361.998z M146,246.191l-55.643-55.643
			c-1.497-1.497-1.137-3.128-0.79-3.967s1.247-2.247,3.363-2.247H146V246.191z M146,130.384L90.356,74.741
			c-1.497-1.497-1.137-3.128-0.789-3.967c0.348-0.839,1.247-2.248,3.363-2.248H146V130.384z M421.642,306.355L366,361.999v-61.857
			h53.069v-0.001c2.117,0,3.016,1.408,3.363,2.247C422.779,303.227,423.14,304.859,421.642,306.355z"/>
	</g>
</g>
<g>
</g>
<g>
</g>
<g>
</g>
<g>
</g>
<g>
</g>
<g>
</g>
<g>
</g>
<g>
</g>
<g>
</g>
<g>
</g>
<g>
</g>
<g>
</g>
<g>
</g>
<g>
</g>
<g>
</g>
</svg>
